!!!!SEGMENT: pl-kk--kk-i-382--023-004_anonim-nro-8-agnus.krn
!!!id: 18xx:1499
!!!COM: Anonim
!!!OTL: Nro 8 Agnus
!!!PDT:
!!!SMS-siglum: PL-Kk
!!!SMS-shelfmark: Kk.I.382
!!!NIFC-rismID: 1001139140
!!!URL-scan: http://repozytorium.nifc.pl/skany/pl-kk-nut--i-382
!!!ONB-nifc: UWAGA: obsada: S (T 1), A (B 1), T 2, B 2; S (T 1): skan 0023; A (B 1): skan 0169-0170; T 2: skan 0095; B 2: skan 0241
!!!SMS-variant:
!!!SMS-altvar:
**kern	**text	**kern	**text	**kern	**text	**kern	**text
*part4	*part4	*part3	*part3	*part2	*part2	*part1	*part1
*staff4	*staff4	*staff3	*staff3	*staff2	*staff2	*staff1	*staff1
*I"Basso II	*	*I"Tenore II	*	*I"Alto vel Basso I	*	*I"Soprano vel Tenore I.	*
*I'B 2	*	*I'T 2	*	*I'A (B 1)	*	*I'S (T 1)	*
*clefF4	*	*clefC4	*	*clefC3	*	*clefC1	*
*k[]	*	*k[]	*	*k[]	*	*k[]	*
*M4/4	*	*M4/4	*	*M4/4	*	*M4/4	*
*met(C.)	*	*met(C.)	*	*met(C.)	*	*met(C.)	*
=1	=1	=1	=1	=1	=1	=1	=1
*2\right	*	*2\right	*	*2\right	*	*2\right	*
!LO:TX:t=P:problem:all\right:global	!	!LO:TX:t=P:problem:all\right:global	!	!LO:TX:t=P:problem:all\right:global	!	!LO:TX:t=P:problem:all\right:global	!
!LO:TX:a:t=P:problem:w źródle ta adnotacja zapisana przed pierwszym taktem, na pięciolinii	!	!LO:TX:a:t=P:problem:w źródle ta adnotacja zapisana przed pierwszym taktem, na pięciolinii	!	!LO:TX:a:t=P:problem:w źródle ta adnotacja zapisana przed pierwszym taktem, na pięciolinii i częściowo przed pięciolinią	!	!LO:TX:a:t=P:problem:w źródle ta adnotacja zapisana przed pierwszym taktem, na pięciolinii	!
!LO:TX:a:i:t=Agnus.	!	!LO:TX:a:i:t=Agnus.	!	!LO:TX:a:i:t=Agnus	!	!LO:TX:a:i:t=Agnus.	!
(>4C\	A-	(>2e\	A-	(>2g\	A-	(>2cc\	A-
4E\)	.	.	.	.	.	.	.
(>4G\	-gnus	8e\L	.	8g\L	.	4b\)	.
.	.	8f\J)	.	8a\J)	.	.	.
4GG/)	.	(8e\L	-gnus	(>8g\L	-gnus	4b\	-gnus
.	.	8d\J)	.	8f\J)	.	.	.
=2	=2	=2	=2	=2	=2	=2	=2
4GG/	De-	4d\	De-	4f\	De-	4b\	De-
4C/	-i	4c\	-i	4e\	-i	4g\	-i
4r	.	4r	.	4r	.	4r	.
4C/	qui	4c\	qui	4e\	qui	4g\	qui
=3	=3	=3	=3	=3	=3	=3	=3
4G\	tol-	4B\	tol-	4d\	tol-	4g\	tol-
8G\	-lis	8B\	-lis	8d\	-lis	8g\	-lis
8G\	pec-	8c\	pec-	8e\	pec-	8g\	pec-
4G\	-ca-	(>8e\L	-ca-	(>8g\L	-ca-	(>8cc\L	-ca-
.	.	8d\J)	.	8f\J)	.	8b\J)	.
4G\	-ta	(>8c\L	-ta	(>8e\L	-ta	4g\	-ta
.	.	8B\J)	.	8d\J)	.	.	.
!	!	!LO:LB:g=original	!	!	!	!	!
=4	=4	=4	=4	=4	=4	=4	=4
(>4c\	mun-	(>8c\L	mun-	(>8e\L	mun-	(>4g\	mun-
.	.	8d\	.	8f\	.	.	.
4G\)	.	8e\	.	8g\	.	4b\)	.
.	.	8f\J)	.	8a\J)	.	.	.
4C/	-di	4e\	-di	4g\	-di	4g\	-di,
4r	.	4r	.	4r	.	4r	.
!LO:LB:g=original	!	!	!	!LO:LB:g=original	!	!LO:LB:g=original	!
=5	=5	=5	=5	=5	=5	=5	=5
(>4C\	A-	(>2e\	A-	(>2g\	A-	(>2cc\	A-
4E\)	.	.	.	.	.	.	.
(>4G\	-gnus	8e\L	.	8g\L	.	4b\)	.
.	.	8f\J)	.	8a\J)	.	.	.
4GG/)	.	(>8e\L	-gnus	(>8g\L	-gnus	4b\	-gnus
.	.	8d\J)	.	8f\J)	.	.	.
=6	=6	=6	=6	=6	=6	=6	=6
4GG/	De-	4d\	De-	4f\	De-	4b\	De-
4C/	-i	4c\	-i	4e\	-i	4g\	-i
4r	.	4r	.	4r	.	4r	.
4C/	qui	4c\	qui	4e\	qui	4g\	qui
=7	=7	=7	=7	=7	=7	=7	=7
4G\	tol-	4B\	tol-	4d\	tol-	4g\	tol-
8G\	-lis	8B\	-lis	8d\	-lis	8g\	-lis
8G\	pec-	8c\	pec-	8e\	pec-	8g\	pec-
4G\	-ca-	(>8e\L	-ca-	(>8g\L	-ca-	(>8cc\L	-ca-
.	.	8d\J)	.	8f\J)	.	8b\J)	.
4G\	-ta	(>8c\L	-ta	(>8e\L	-ta	4g\	-ta
.	.	8B\J)	.	8d\J)	.	.	.
=8	=8	=8	=8	=8	=8	=8	=8
(>4c\	mun-	(>8c\L	mun-	(>8e\L	mun-	(>4g\	mun-
.	.	8d\	.	8f\	.	.	.
4G\)	.	8e\	.	8g\	.	4b\)	.
.	.	8f\J)	.	8a\J)	.	.	.
4C/	-di	4e\	-di,	4g\	-di,	4g\	-di
4r	.	4r	.	4r	.	4r	.
!	!	!LO:LB:g=original	!	!	!	!	!
=9	=9	=9	=9	=9	=9	=9	=9
2C/	mi-	(>4e\	mi-	(>4g\	mi-	2.cc\	mi-
.	.	4c\)	.	4e\)	.	.	.
(>4E\	-se-	2G/	-se-	(>4c/	-se-	.	.
4C\)	.	.	.	4B-X/)	.	4cc\	-se-
!LO:LB:g=original	!	!	!	!LO:LB:g=original	!	!LO:LB:g=original	!
=10	=10	=10	=10	=10	=10	=10	=10
!LO:TX:t=P:problem:2\right:global	!	!	!	!	!	!	!
2.F\	-re-	(>4F/	-re-	(>4A/	-re-	2.cc\	-re-
.	.	4f\)	.	4a\)	.	.	.
.	.	(>8e\L	-re	(>8g\L	-re	.	.
.	.	8d\J	.	8f\	.	.	.
4F#X\	-re	4c\)	.	8e\	.	4a\	-re
.	.	.	.	8d\J)	.	.	.
=11	=11	=11	=11	=11	=11	=11	=11
2G\	no-	2e\	no-	2c/	no-	2g\	no-
2GG/	-bis	2d\	-bis	2Bn/	-bis	2g\	-bis
=12	=12	=12	=12	=12	=12	=12	=12
2G\	mi-	2B\	mi-	2g\	mi-	2dd\	mi-
2A\	-se-	2c\	-se-	2f#X\	-se-	2cc\	-se-
=13	=13	=13	=13	=13	=13	=13	=13
2B\	-re-	2d\	-re-	2fn\	-re-	2g\	-re-
2c\	-re	2c\	-re	2e\	-re	2g\	-re
=14	=14	=14	=14	=14	=14	=14	=14
4G\	mi-	(>2B\	no-	(>2d\	no-	[>1g	no-
4F\	-se-	.	.	.	.	.	.
4E\	-re-	2c\	.	2e\	.	.	.
4F\	-re	.	.	.	.	.	.
=15	=15	=15	=15	=15	=15	=15	=15
(>2G\	no-	2c\	.	2e\	.	1g]	.
2GG/)	.	2B\)	.	2d\)	.	.	.
=16	=16	=16	=16	=16	=16	=16	=16
1C	-bis.	1c	-bis.	1e	-bis.	1g	-bis.
!LO:PB:g=original	!	!LO:LB:g=original	!	!LO:LB:g=original	!	!LO:LB:g=original	!
==17	==17	==17	==17	==17	==17	==17	==17
*M4/4	*	*M4/4	*	*M4/4	*	*M4/4	*
*met(C.)	*	*met(C.)	*	*met(C.)	*	*met(C.)	*
(<4C/	A-	2.c\	A-	(>4e\	A-	2.g\	A-
4D/)	.	.	.	4f\)	.	.	.
(>8F\L	-gnus	.	.	(>8a\L	-gnus	.	.
8E\	.	.	.	8g\	.	.	.
8D\	.	4c\	-gnus	8f\	.	4g\	-gnus
8C\J)	.	.	.	8e\J)	.	.	.
=18	=18	=18	=18	=18	=18	=18	=18
(>4G\	De-	(>4B\	De-	2g\	De-	2dd\	De-
4A\)	.	4c\)	.	.	.	.	.
(>8c\L	-i	(>8e\L	-i	4g\	-i	4dd\	-i
8B\J)	.	8d\J)	.	.	.	.	.
(>8A\L	qui	(>8c\L	qui	4g\	qui	4b\	qui
8G\J)	.	8B\J)	.	.	.	.	.
=19	=19	=19	=19	=19	=19	=19	=19
(>4c\	tol-	2e\	tol-	2g\	tol-	2cc\	tol-
8G\L	.	.	.	.	.	.	.
8E\J)	.	.	.	.	.	.	.
4C/	-lis	4e\	-lis	4g\	-lis	4cc\	-lis
4C/	pec-	4e\	pec-	4g\	pec-	4cc\	pec-
=20	=20	=20	=20	=20	=20	=20	=20
4BB/	-ca-	4d\	-ca-	4g\	-ca-	4dd\	-ca-
4C/	-ta	4e\	-ta	4g\	-ta	4cc\	-ta
(>4D\	mun-	2f\	mun-	2g\	mun-	(>4b\	mun-
4GG/)	.	.	.	.	.	4dd\)	.
=21	=21	=21	=21	=21	=21	=21	=21
2C/	-di	2e\	-di	2g\	-di	2cc\	-di
4r	.	4r	.	4r	.	4r	.
4C/	qui	4e\	qui	4g\	qui	4cc\	qui
!LO:LB:g=original	!	!LO:LB:g=original	!	!LO:LB:g=original	!	!LO:LB:g=original	!
=22	=22	=22	=22	=22	=22	=22	=22
2F#X\	tol-	2d\	tol-	2a\	tol-	2cc\	tol-
4G\	-lis	4d\	-lis	4g\	-lis	4b\	-lis
4G\	pec-	4d\	pec-	4g\	pec-	4b\	pec-
=23	=23	=23	=23	=23	=23	=23	=23
4F#X\	-ca-	4d\	-ca-	4a\	-ca-	4cc\	-ca-
4G\	-ta	4d\	-ta	4g\	-ta	4b\	-ta
2F#\	mun-	2d\	mun-	2a\	mun-	2cc\	mun-
=24	=24	=24	=24	=24	=24	=24	=24
!	!	!	!	!LO:TX:a:t=P:problem:w źródle ta adnotacja zapisana za taktem 24, na pięciolinii	!	!LO:TX:a:t=P:problem:w źródle ta adnotacja zapisana za taktem 24, na pięciolinii	!
!	!	!	!	!LO:TX:b:i:t=Seque Dona V&colon; S&colon;	!	!LO:TX:b:i:t=Seque Dona V&colon; S&colon;	!
1G	-di.	1d	-di.	1g	-di.	1b	-di;
!LO:LB:g=original	!	!LO:LB:g=original	!	!LO:PB:g=original	!	!LO:PB:g=original	!
==25	==25	==25	==25	==25	==25	==25	==25
*M3/4	*	*M3/4	*	*M3/4	*	*M3/4	*
!LO:TX:a:t=P:problem:w źródle ta adnotacja zapisana przed taktem 25, na pięciolinii i częściowo przed pięciolinią	!	!LO:TX:a:t=P:problem:w źródle ta adnotacja zapisana przed taktem 25, na pięciolinii	!	!LO:TX:a:t=P:problem:w źródle ta adnotacja zapisana przed taktem 25, na pięciolinii	!	!LO:TX:a:t=P:problem:w źródle ta adnotacja zapisana przed taktem 25, przed pięciolinią i częściowo na pięciolinii	!
!LO:TX:a:i:t=Dona.	!	!LO:TX:a:i:t=Dona.	!	!LO:TX:a:i:t=Dona	!	!LO:TX:a:i:t=Dona	!
(<4C/	Do-	2c\	Do-	2g\	Do-	2ee\	Do-
4E/)	.	.	.	.	.	.	.
4G\	-na	4B\	-na	4f\	-na	4dd\	-na
=26	=26	=26	=26	=26	=26	=26	=26
(>4c\	no-	2G/	no-	2e\	no-	2cc\	no-
4E\)	.	.	.	.	.	.	.
4G\	-bis	4G/	-bis	4d\	-bis	4b\	-bis
=27	=27	=27	=27	=27	=27	=27	=27
(>4C/	pa-	(<4G/	pa-	8e\L	pa-	8cc\L	pa-
.	.	.	.	(>16d\L	.	16b\L	.
.	.	.	.	16e\JJ	.	16cc\JJ	.
4F\	.	4A/	.	8g\L	.	8ee\L	.
.	.	.	.	8f\	.	8dd\	.
4G\)	.	4G/)	.	8e\	.	8cc\	.
.	.	.	.	8d\J)	.	8b\J	.
=28	=28	=28	=28	=28	=28	=28	=28
4C/	-cem	4G/	-cem	4e\	-cem	4cc\	-cem
4r	.	4r	.	4r	.	4r	.
4G\	da	4G/	da	8e\	do-	8cc\	do-
.	.	.	.	8f\	-na	8dd\	-na
=29	=29	=29	=29	=29	=29	=29	=29
4G\	pa-	4G/	pa-	4e\	no-	4cc\	no-
4G\	-cem	4G/	-cem	4d\	-bis	4b\	-bis
4G\	da	4G/	da	8f\	no-	8dd\	no-
.	.	.	.	8g\	-bis	8ee\	-bis
!	!	!	!	!LO:LB:g=original	!	!LO:LB:g=original	!
=30	=30	=30	=30	=30	=30	=30	=30
4c\	pa-	4G/	pa-	4f\	pa-	4dd\	pa-
4C/	-cem	4G/	-cem	4e\	-cem	4cc\	-cem
4C/	da	4c\	da	4g\	da	4ee\	da
!LO:LB:g=original	!	!LO:LB:g=original	!	!	!	!	!
=31	=31	=31	=31	=31	=31	=31	=31
(>4C\	pa-	(>4c\	pa-	(>4g\	pa-	(>4ee\	pa-
4F\	.	2A\)	.	4f\	.	4dd\	.
4F#X\)	.	.	.	4e\)	.	4cc\)	.
=32	=32	=32	=32	=32	=32	=32	=32
2G\	-cem	2G/	-cem	2d\	-cem	2b\	-cem
4r	.	4r	.	4r	.	4r	.
=33	=33	=33	=33	=33	=33	=33	=33
2G\	Do-	2.r	.	2g\	Do-	2gg\	Do-
!	!	!LO:TX:a:t=1.	!	!	!	!	!
4G\	-na	.	.	4g\	-na	4gg\	-na
=34	=34	=34	=34	=34	=34	=34	=34
(<4.BB/	no-	4r	.	(>4.B/	no-	(>4.b\	no-
.	.	4r	.	.	.	.	.
8D/)	.	.	.	8d\)	.	8dd\)	.
(>8F\L	-bis	8r	.	(>8f\L	-bis	(>8ff\L	-bis
8G\J)	.	8B\	da	8d\J)	.	8dd\J)	.
=35	=35	=35	=35	=35	=35	=35	=35
4C/	pa-	4c\	pa-	4e\	pa-	4ee\	pa-
4G\	-cem	4B\	-cem	4g\	-cem	4dd\	-cem
4r	.	4r	.	4r	.	4r	.
!	!	!	!	!	!	!LO:LB:g=original	!
=36	=36	=36	=36	=36	=36	=36	=36
(>4GG/	do-	(>8B\L	do-	(>8d\L	do-	8dd\	do-
.	.	8d\	.	8f\	.	8b\	-na
4G\)	.	8c\	.	8e\	.	4g\	no-
.	.	8e\J)	.	8g\J)	.	.	.
4G\	-na	4d\	-na	4f\	-na	4b 4g\	-bis
!	!	!	!	!LO:LB:g=original	!	!	!
=37	=37	=37	=37	=37	=37	=37	=37
(>4c\	no-	(>8c\L	no-	(>8e\L	no-	4g\	pa-
.	.	8e\	.	8g\	.	.	.
4G\)	.	8d\	.	8f\	.	4g\	-cem
.	.	8f\J)	.	8a\J)	.	.	.
4C/	-bis	4e\	-bis	4g\	-bis	4g\	da
!LO:LB:g=original	!	!LO:LB:g=original	!	!	!	!	!
=38	=38	=38	=38	=38	=38	=38	=38
(>4F\	pa-	(>8f\L	pa-	(>8a\L	pa-	(>8cc\L	pa-
.	.	16e\L	.	16g\L	.	8a\J	.
.	.	16d\JJ	.	16f\JJ	.	.	.
4G\	.	4c\	.	4e\	.	2g\)	.
4GG/)	.	4B\)	.	4d\)	.	.	.
=39	=39	=39	=39	=39	=39	=39	=39
2C/	-cem	2c\	-cem	2e\	-cem	2g\	-cem
4r	.	4r	.	4r	.	4r	.
=40	=40	=40	=40	=40	=40	=40	=40
2G\	Do-	2.r	.	2g\	Do-	2gg\	do-
!	!	!LO:TX:a:t=1.	!	!	!	!	!
4G\	-na	.	.	4g\	-na	4gg\	-na
=41	=41	=41	=41	=41	=41	=41	=41
(<4.BB/	no-	4r	.	4.B/	no-	(>4.b\	no-
.	.	4r	.	.	.	.	.
8D/)	.	.	.	8d\	.	8dd\)	.
(>8F\L	-bis	8r	.	(>8f\L	-bis	(>8ff\L	-bis
8G\J)	.	8B\	da	8g\J)	.	8dd\J)	.
!	!	!	!	!	!	!LO:LB:g=original	!
=42	=42	=42	=42	=42	=42	=42	=42
4E\	pa-	4c\	pa-	4g\	pa-	4cc\	pa-
4G\	-cem	4B\	-cem	4g\	-cem	4dd\	-cem
4r	.	4r	.	4r	.	4r	.
=43	=43	=43	=43	=43	=43	=43	=43
(>4GG/	Do-	(>8B\L	do-	(>8d\L	do-	8dd\	do-
.	.	8d\	.	8f\	.	8b\	-na
4G\)	.	8c\	.	8e\	.	4g\	no-
.	.	8e\J)	.	8g\J)	.	.	.
4G\	-na	4d\	-na	4f\	-na	4b\	-bis
!	!	!	!	!LO:LB:g=original	!	!	!
=44	=44	=44	=44	=44	=44	=44	=44
(>4C/	no-	(>8c\L	no-	(>8e\L	no-	4g\	pa-
.	.	8e\	.	8g\	.	.	.
4G\)	.	8d\)	.	8f\	.	4g\	-cem
.	.	8f\J	.	8a\J)	.	.	.
4c\	-bis	4e\	-bis	4g\	-bis	4g\	da
!LO:LB:g=original	!	!LO:LB:g=original	!	!	!	!	!
=45	=45	=45	=45	=45	=45	=45	=45
(>4F\	pa-	(>8f\L	pa-	(>8a\L	pa-	(>8cc\L	pa-
.	.	16e\L	.	16g\L	.	8a\J	.
.	.	16d\JJ	.	16f\JJ	.	.	.
4G\	.	4c\	.	4e\	.	2g\)	.
4GG/)	.	4B\)	.	4d\)	.	.	.
=46	=46	=46	=46	=46	=46	=46	=46
4C/	-cem	2c\	-cem	2e\	-cem	2g\	-cem
4r	.	.	.	.	.	.	.
4C/	da	4c\	da	4e\	da	4g\	da
=47	=47	=47	=47	=47	=47	=47	=47
2.C/	pa-	2.c\	pa-	2.f\	pa-	2.a\	pa-
=48	=48	=48	=48	=48	=48	=48	=48
2.C/	-cem.	2.c\	-cem.	2.e\	-cem.	2.g\	-cem.
==	==	==	==	==	==	==	==
*-	*-	*-	*-	*-	*-	*-	*-
!!!system-decoration: [(s1,s2,s3,s4)]
!!!RDF**kern: > = above
!!!RDF**kern: < = below
!!!ENC: Mateusz Solarz
!!!END: 2021-01-29
!!!EED: Antoni Szymański
!!!EST: 2021-02-04
